docs/_includes/icons/gift.svg

<svg viewBox="0 0 14 19" xmlns="http://www.w3.org/2000/svg"><path d="m6.446 10.696v4.5h-5.144a.318.318 0 0 1 -.316-.316v-11.395a.318.318 0 0 1 .316-.317h5.144v4.543l-2.23-.927a.688.688 0 0 0 -1.024.683v2.003a.688.688 0 0 0 1.024.683l1.711-.71-1.331 2.108a.554.554 0 0 0 .937.591zm6.568-7.211v11.395a.318.318 0 0 1 -.316.317h-5.144v-4.501l.913 1.445a.554.554 0 0 0 .937-.591l-1.331-2.11 1.711.711a.688.688 0 0 0 1.024-.683v-2.001a.688.688 0 0 0 -1.024-.683l-2.23.927v-4.543h5.144a.318.318 0 0 1 .316.317"/></svg>

<svg xmlns="http://www.w3.org/2000/svg" class="cf-icon-svg cf-icon-svg--gift" viewBox="0 0 14 19"><path d="M6.446 10.696v4.5H1.302a.318.318 0 0 1-.316-.316V3.485a.318.318 0 0 1 .316-.317h5.144v4.543l-2.23-.927a.688.688 0 0 0-1.024.683V9.47a.688.688 0 0 0 1.024.683l1.711-.71-1.331 2.108a.554.554 0 0 0 .937.591zm6.568-7.211V14.88a.318.318 0 0 1-.316.317H7.554v-4.501l.913 1.445a.554.554 0 0 0 .937-.591L8.073 9.44l1.711.711a.688.688 0 0 0 1.024-.683V7.467a.688.688 0 0 0-1.024-.683l-2.23.927V3.168h5.144a.318.318 0 0 1 .316.317"/></svg>
